!!!COM: Corelli, Arcangelo
!!!OTL: Sonata da chiesa
!!!OPS: 3
!!!ONM: 11
!!!OMV: 3
!!!OMD: Adagio
**kern	**fb	**kern	**kern	**kern
*part4	*part4	*part3	*part2	*part1
*staff4	*	*staff3	*staff2	*staff1
*clefF4	*	*clefF4	*clefG2	*clefG2
*k[b-]	*	*k[b-]	*k[b-]	*k[b-]
*F:	*	*F:	*F:	*F:
*M3/2	*	*M3/2	*M3/2	*M3/2
=1	=1	=1	=1	=1
1E-X	.	1E-X	1g	1b-
2E-	.	2E-	2g	2b-
=	=	=	=	=
1BBn	5	1BBn	1f	1dd
2BB	.	2BB	2f	2dd
=	=	=	=	=
1C	-	1C	1e-X	1g
2c	.	2c	2g	2ee-X
=	=	=	=	=
1F#X	6	1F#X	1a	1dd
2F#	5	2F#	2a	2cc
=	=	=	=	=
1G	.	1G	1d	1b-
[2Fni	6	[2Fni	[2a	[2dd
=	=	=	=	=
2F]	.	2F]	2a]	2dd]
1E-X	6	1E-X	1g	1cc
=	=	=	=	=
1D	#	1D	2f#X	1dd
.	.	.	[1dd	.
2D	.	2D	.	2ff#X
=	=	=	=	=
2E	7	2E	2dd]	2gg
1F#X	5	1F#X	[1cc	2aa
.	.	.	.	2aa
=	=	=	=	=
1G	5 4	1G	2cc]	2dd
.	3	.	2b-	[1gg
2GG	n	2GG	2bn	.
=	=	=	=	=
2AA	7	2AA	2cc	2gg]
1BBn	5	1BBn	2dd	[1ff
.	.	.	2dd	.
=	=	=	=	=
1C	5 4	1C	2g	2ff]
.	-3	.	[1cc	1ee-X
2c	.	2c	.	.
=	=	=	=	=
2F#X	6 5	2F#X	2cc]	[1.dd
2G	.	2G	2b-	.
2D	#	2D	2f#X	.
=	=	=	=	=
1E-X	7	1E-X	1g	2dd]
.	6	.	.	2cc
2En	5	2En	2gg	2b-
=	=	=	=	=
1F	.	1F	1cc	1a
2D	6	2D	[2b-	2ff
=	=	=	=	=
2E-X	6 5	2E-X	2b-]	2gg
2F	5 4	2F	2.b-	2.cc
2FF	3	2FF	.	.
.	.	.	4a	4cc
=	=	=	=	=
1BB-	5	1BB-	2b-	1b-
.	6	.	[1gg	.
2B-	6	2B-	.	2gg
=	=	=	=	=
2c	6 5	2c	2gg]	1aa
2d	#	2d	2ff#X	.
[2G	.	[2G	2gg	2bb-
=	=	=	=	=
2G]	4 2	2G]	1aa	2ccc
1F#X	5	1F#X	.	[1cc
.	.	.	2aa	.
=	=	=	=	=
1G	5 4	1G	2dd	2cc]
.	n	.	[1gg	2bn
2E-X	6	2E-X	.	2cc
=	=	=	=	=
1BBn	6	1BBn	2gg]	1dd
.	5	.	[1ff	.
2BB	.	2BB	.	2dd
=	=	=	=	=
1C	5 4	1C	2ff]	2g
.	-	.	1ee-X	[1cc
2c	.	2c	.	.
=	=	=	=	=
2F#X	6 5	2F#X	1.dd	2cc]
2G	.	2G	.	[1b-
2GG	.	2GG	.	.
=	=	=	=	=
1C	7	1C	1.cc	2b-]
.	-6	.	.	[1a-X
2D	5	2D	.	.
=	=	=	=	=
1E-X	5 -4	1E-X	1b-	2a-]
.	3	.	.	[1g
2BB-	6	2BB-	2dd	.
=	=	=	=	=
2C	6 5 -	2C	(4cc	2g]
.	.	.	4b-)	.
1D	5 4	1D	1a	2.g
.	#3	.	.	4f#X
=	=	=	=	=
1G	.	1G	1g	1g
2C	-	2C	2g	2ee-X
=	=	=	=	=
1C	#4| 2	1C	1f#X	1dd
2BB-	6	2BB-	[2g	2dd
=	=	=	=	=
2C	6 5 -	2C	2g]	(4cc
.	.	.	.	4b-)
1D	5 4	1D	2.g	1a
.	#3	.	4f#X	.
=	=	=	=	=
1.GG	.	1.GG	1.g	1.g
==	==	==	==	==
*-	*-	*-	*-	*-
!!!system-decoration: [{s1,s2},s3,s4]
!!!YEM: CC BY-NC-SA 4.0; CCARH; DCML
!!!RDF**kern: i = editorial accidental